X: 022258
T: Bunratty Boys
S: Johnny Cronin and Joe Burke (Shanachie 29005, 1977)
Z: Gordon Turnbull, Edinburgh
N: The Bunratty was the famous Bronx trad music pub in the 1970's.
N: Long gone but the memory will last forever!
R: Slide
M: 12/8
Q: 1/8=400   
L: 1/8
K: D
e3 efe d2 f a2 f | e3 efe d2 c B2 A |
e3 efe d2 f a2 f |  efe f2 e d3 d3:||
A2 a f2 a A2 a f2 a | efe f2 e d2 c B2 A |
A2 a f2 a A2 a f2 a | efe f2 e d3 d3 :|
